public/logos/VJ.svg

<?xml version="1.0" encoding="UTF-8"?>
<svg xmlns="http://www.w3.org/2000/svg" xmlns:xlink="http://www.w3.org/1999/xlink" width="176pt" height="30.92pt" viewBox="0 0 176 30.92" version="1.1">
<defs>
<clipPath id="clip1">
  <path d="M 41 4 L 62 4 L 62 30.921875 L 41 30.921875 Z M 41 4 "/>
</clipPath>
</defs>
<g id="surface1">
<path style=" stroke:none;fill-rule:nonzero;fill:rgb(90.354919%,15.472412%,16.15448%);fill-opacity:1;" d="M 0 4.398438 L 5.304688 4.398438 L 6.210938 20.699219 L 13.777344 4.398438 L 19.339844 4.398438 L 7.246094 28.136719 L 2.457031 28.136719 L 0 4.398438 "/>
<path style=" stroke:none;fill-rule:nonzero;fill:rgb(90.354919%,15.472412%,16.15448%);fill-opacity:1;" d="M 20.117188 4.464844 L 25.421875 4.464844 L 21.601562 23.027344 L 16.300781 23.027344 L 20.117188 4.464844 "/>
<path style=" stroke:none;fill-rule:nonzero;fill:rgb(90.354919%,15.472412%,16.15448%);fill-opacity:1;" d="M 112.914062 3.960938 L 118.21875 3.960938 L 114.398438 22.523438 L 109.097656 22.523438 L 112.914062 3.960938 "/>
<path style=" stroke:none;fill-rule:nonzero;fill:rgb(90.354919%,15.472412%,16.15448%);fill-opacity:1;" d="M 36.835938 11.96875 C 37.09375 11.289062 38.285156 7.117188 35.089844 7.117188 C 33.152344 7.117188 31.984375 8.023438 31.085938 9.796875 C 30.691406 10.769531 30.496094 11.417969 30.335938 11.96875 Z M 40.996094 15.460938 L 30.140625 15.460938 C 30.011719 16.042969 29.703125 19.601562 33.894531 19.601562 C 36.640625 19.601562 37.453125 19.277344 38.742188 18.628906 L 39.328125 21.734375 C 37.582031 22.769531 35.898438 22.964844 34.023438 23.15625 C 28.574219 23.15625 25.160156 21.539062 25.226562 15.460938 C 25.324219 5.871094 33.457031 3.96875 35.574219 4.011719 C 45.46875 4.207031 40.996094 15.460938 40.996094 15.460938 "/>
<path style=" stroke:none;fill-rule:nonzero;fill:rgb(90.354919%,15.472412%,16.15448%);fill-opacity:1;" d="M 72.539062 11.96875 C 72.796875 11.289062 73.988281 7.117188 70.792969 7.117188 C 68.855469 7.117188 67.6875 8.023438 66.789062 9.796875 C 66.394531 10.769531 66.203125 11.417969 66.039062 11.96875 Z M 76.699219 15.460938 L 65.84375 15.460938 C 65.714844 16.042969 65.40625 19.601562 69.597656 19.601562 C 72.34375 19.601562 73.15625 19.277344 74.449219 18.628906 L 75.03125 21.734375 C 73.28125 22.769531 71.601562 22.964844 69.726562 23.15625 C 64.277344 23.15625 60.863281 21.539062 60.929688 15.460938 C 61.027344 5.871094 69.160156 3.96875 71.277344 4.011719 C 81.171875 4.207031 76.699219 15.460938 76.699219 15.460938 "/>
<path style=" stroke:none;fill-rule:nonzero;fill:rgb(90.354919%,15.472412%,16.15448%);fill-opacity:1;" d="M 46.042969 1.660156 C 46.042969 1.660156 46.675781 0.6875 48.566406 0.226562 C 50.460938 -0.234375 51.84375 0.144531 51.84375 0.144531 L 50.824219 4.496094 L 53.5625 4.496094 L 52.933594 7.84375 L 49.902344 7.917969 L 48.011719 17.449219 C 47.941406 17.789062 47.453125 20.457031 50.800781 19.535156 C 50.800781 19.535156 49.367188 23.875 45.269531 23.027344 C 43.925781 22.75 42.066406 21.28125 42.457031 18.734375 L 46.042969 1.660156 "/>
<path style=" stroke:none;fill-rule:nonzero;fill:rgb(90.354919%,15.472412%,16.15448%);fill-opacity:1;" d="M 81.84375 1.660156 C 81.84375 1.660156 82.476562 0.6875 84.367188 0.226562 C 86.261719 -0.234375 87.644531 0.144531 87.644531 0.144531 L 86.625 4.496094 L 89.363281 4.496094 L 88.734375 7.84375 L 85.703125 7.917969 L 83.808594 17.449219 C 83.738281 17.789062 83.253906 20.457031 86.597656 19.535156 C 86.597656 19.535156 85.167969 23.875 81.070312 23.027344 C 79.726562 22.75 77.867188 21.28125 78.257812 18.734375 L 81.84375 1.660156 "/>
<g clip-path="url(#clip1)" clip-rule="nonzero">
<path style=" stroke:none;fill-rule:nonzero;fill:rgb(90.354919%,15.472412%,16.15448%);fill-opacity:1;" d="M 55.980469 4.445312 L 61.105469 4.445312 L 57.566406 22.25 C 56.449219 27.535156 51.382812 32.578125 44.710938 30.402344 C 42.335938 29.625 40.734375 27.246094 41.074219 24.871094 C 41.074219 24.871094 43.09375 26.625 46.070312 26.761719 C 50.191406 26.957031 52.058594 22.800781 52.328125 21.523438 L 55.980469 4.445312 "/>
</g>
<path style=" stroke:none;fill-rule:nonzero;fill:rgb(90.354919%,15.472412%,16.15448%);fill-opacity:1;" d="M 103.066406 19.128906 L 103.066406 9.386719 L 97.609375 19.128906 Z M 103.082031 22.523438 L 95.902344 22.523438 L 92.734375 27.828125 L 87.558594 27.828125 L 101.855469 3.96875 L 107.414062 3.96875 L 108.320312 27.828125 L 103.082031 27.828125 L 103.082031 22.523438 "/>
<path style=" stroke:none;fill-rule:nonzero;fill:rgb(90.354919%,15.472412%,16.15448%);fill-opacity:1;" d="M 128.824219 7.339844 C 127.976562 7.121094 126.109375 6.976562 125.257812 7.339844 L 122.105469 22.570312 L 116.84375 22.570312 L 120.480469 5.082031 C 123.535156 3.289062 127.34375 3.265625 130.0625 3.652344 L 128.824219 7.339844 "/>
<path style=" stroke:none;fill-rule:nonzero;fill:rgb(90.354919%,15.472412%,16.15448%);fill-opacity:1;" d="M 130.9375 21.609375 C 130.425781 22.507812 129.386719 22.878906 128.621094 22.441406 C 127.851562 22 127.644531 20.917969 128.15625 20.019531 C 128.671875 19.121094 129.707031 18.75 130.476562 19.191406 C 131.246094 19.632812 131.453125 20.714844 130.9375 21.609375 "/>
<path style=" stroke:none;fill-rule:nonzero;fill:rgb(90.354919%,15.472412%,16.15448%);fill-opacity:1;" d="M 140.757812 19.007812 L 141.097656 21.40625 C 139.664062 22.667969 137.128906 22.582031 136.027344 22.160156 C 132.535156 20.824219 132.964844 16.402344 133.480469 14.375 C 134.015625 12.28125 134.886719 10.757812 136.199219 9.546875 C 137.605469 8.449219 139.328125 7.847656 141.304688 8.273438 C 142.917969 8.578125 143.691406 9.230469 143.691406 9.230469 L 142.382812 11.269531 C 139.328125 9.621094 137.308594 14.160156 137.117188 15.511719 C 136.511719 19.855469 138.914062 20.195312 140.757812 19.007812 "/>
<path style=" stroke:none;fill-rule:nonzero;fill:rgb(90.354919%,15.472412%,16.15448%);fill-opacity:1;" d="M 150.460938 15.585938 C 149.921875 18.511719 148.699219 19.875 147.160156 19.855469 C 145.621094 19.574219 145.585938 18.132812 146.121094 15.210938 C 146.65625 12.285156 147.816406 10.585938 149.539062 10.636719 C 151.117188 10.6875 150.996094 12.664062 150.460938 15.585938 Z M 151.53125 8.441406 C 147.695312 7.195312 144.730469 9.058594 142.890625 13.257812 C 141.054688 17.453125 141.496094 20.796875 144.882812 22.28125 C 148.324219 23.347656 151.777344 22.160156 153.613281 17.964844 C 155.449219 13.765625 155.050781 9.582031 151.53125 8.441406 "/>
<path style=" stroke:none;fill-rule:nonzero;fill:rgb(90.354919%,15.472412%,16.15448%);fill-opacity:1;" d="M 173.867188 22.402344 L 169.839844 22.402344 L 171.851562 12.773438 C 172.410156 11.21875 171.09375 10.757812 170.714844 10.710938 C 169.546875 10.566406 168.441406 11.070312 168.285156 11.488281 L 166.03125 22.402344 L 162.03125 22.402344 L 164.066406 12.578125 C 164.21875 12.160156 164.261719 10.976562 162.660156 10.710938 C 162.441406 10.675781 161.109375 10.539062 160.527344 11.027344 L 158.222656 22.402344 L 154.195312 22.402344 C 154.082031 22.402344 156.910156 9.328125 156.910156 9.328125 C 159.53125 8.140625 162.03125 8.238281 162.03125 8.238281 C 165.59375 8.308594 166.675781 9.644531 166.757812 9.644531 C 166.84375 9.644531 169.089844 8.359375 171.828125 8.238281 C 174.761719 8.238281 176.484375 10.613281 175.878906 12.480469 L 173.867188 22.402344 "/>
</g>
</svg>

<svg xmlns="http://www.w3.org/2000/svg" width="176pt" height="41.227" viewBox="0 0 176 30.92"><defs><clipPath id="a"><path d="M41 4h21v26.922H41Zm0 0"/></clipPath></defs><path d="M0 4.398h5.305L6.21 20.7l7.566-16.3h5.563L7.246 28.136H2.457zM20.117 4.465h5.305l-3.82 18.562H16.3zM112.914 3.96h5.305l-3.82 18.563h-5.301zM36.836 11.969c.258-.68 1.45-4.852-1.746-4.852-1.938 0-3.106.906-4.004 2.68-.395.973-.59 1.621-.75 2.172Zm4.16 3.492H30.141c-.13.582-.438 4.14 3.754 4.14 2.746 0 3.558-.324 4.847-.972l.586 3.105c-1.746 1.036-3.43 1.23-5.305 1.422-5.449 0-8.863-1.617-8.796-7.695.097-9.59 8.23-11.492 10.347-11.45 9.895.196 5.422 11.45 5.422 11.45M72.54 11.969c.257-.68 1.448-4.852-1.747-4.852-1.938 0-3.106.906-4.004 2.68-.394.973-.586 1.621-.75 2.172Zm4.16 3.492H65.843c-.13.582-.438 4.14 3.754 4.14 2.746 0 3.558-.324 4.851-.972l.582 3.105c-1.75 1.036-3.43 1.23-5.304 1.422-5.45 0-8.864-1.617-8.797-7.695.097-9.59 8.23-11.492 10.347-11.45 9.895.196 5.422 11.45 5.422 11.45M46.043 1.66s.633-.972 2.523-1.433c1.895-.461 3.278-.082 3.278-.082l-1.02 4.351h2.739l-.63 3.348-3.03.074-1.891 9.531c-.07.34-.559 3.008 2.789 2.086 0 0-1.434 4.34-5.531 3.492a3.72 3.72 0 0 1-2.813-4.293zM81.844 1.66s.633-.972 2.523-1.433c1.895-.461 3.278-.082 3.278-.082l-1.02 4.351h2.738l-.629 3.348-3.03.074-1.895 9.531c-.07.34-.555 3.008 2.789 2.086 0 0-1.43 4.34-5.528 3.492a3.72 3.72 0 0 1-2.812-4.293z" style="stroke:none;fill-rule:nonzero;fill:#e62729;fill-opacity:1"/><g clip-path="url(#a)"><path d="M55.98 4.445h5.125L57.566 22.25c-1.117 5.285-6.183 10.328-12.855 8.152-2.375-.777-3.977-3.156-3.637-5.53 0 0 2.02 1.753 4.996 1.89 4.121.195 5.989-3.961 6.258-5.239z" style="stroke:none;fill-rule:nonzero;fill:#e62729;fill-opacity:1"/></g><path d="M103.066 19.129V9.387l-5.457 9.742Zm.016 3.394h-7.18l-3.168 5.305H87.56l14.296-23.86h5.56l.905 23.86h-5.238zM128.824 7.34c-.847-.219-2.715-.363-3.566 0l-3.153 15.23h-5.261l3.636-17.488c3.055-1.793 6.864-1.816 9.582-1.43zM130.938 21.61c-.512.898-1.551 1.269-2.317.831-.77-.441-.976-1.523-.465-2.421.516-.899 1.551-1.27 2.32-.829.77.442.977 1.524.462 2.418M140.758 19.008l.34 2.398c-1.434 1.262-3.97 1.176-5.07.754-3.493-1.336-3.063-5.758-2.548-7.785.536-2.094 1.407-3.617 2.72-4.828 1.405-1.098 3.128-1.7 5.105-1.274 1.613.305 2.386.957 2.386.957l-1.308 2.04c-3.055-1.649-5.074 2.89-5.266 4.242-.605 4.343 1.797 4.683 3.64 3.496" style="stroke:none;fill-rule:nonzero;fill:#e62729;fill-opacity:1"/><path d="M150.46 15.586c-.538 2.926-1.76 4.289-3.3 4.27-1.539-.282-1.574-1.723-1.039-4.645.535-2.926 1.695-4.625 3.418-4.574 1.578.05 1.457 2.027.922 4.949m1.071-7.145c-3.836-1.246-6.8.618-8.64 4.817-1.836 4.195-1.395 7.539 1.992 9.023 3.441 1.067 6.894-.12 8.73-4.316 1.836-4.2 1.438-8.383-2.082-9.524M173.867 22.402h-4.027l2.012-9.629c.558-1.554-.758-2.015-1.137-2.062-1.168-.145-2.274.36-2.43.777l-2.254 10.914h-4l2.035-9.824c.153-.418.196-1.601-1.406-1.867-.219-.035-1.55-.172-2.133.316l-2.304 11.375h-4.028c-.113 0 2.715-13.074 2.715-13.074 2.621-1.187 5.121-1.09 5.121-1.09 3.563.07 4.645 1.407 4.727 1.407.086 0 2.332-1.286 5.07-1.407 2.934 0 4.656 2.375 4.05 4.242z" style="stroke:none;fill-rule:nonzero;fill:#e62729;fill-opacity:1"/></svg>
